fs/globe_video_32_filled.svg

<svg viewBox="0 0 32 32" fill="none" xmlns="http://www.w3.org/2000/svg" height="1em" width="1em">
  <path d="M10 16C10 14.6074 10.0779 13.2657 10.2219 12H19.7781C19.8696 12.8048 19.9345 13.6403 19.9696 14.5H17C14.5147 14.5 12.5 16.5147 12.5 19V20H10.2219C10.0779 18.7343 10 17.3926 10 16ZM15 19C15 17.8954 15.8954 17 17 17H24C24.4314 17 24.831 17.1366 25.1577 17.3689C25.6674 17.7314 26 18.3269 26 19V19.8364L28.4216 18.1192C28.5621 18.0196 28.7141 17.9624 28.8664 17.9419C29.4315 17.866 30 18.2955 30 18.935V28.065C30 28.8768 29.0838 29.3503 28.4216 28.8807L26 27.1636V28C26 29.1046 25.1046 30 24 30H17C16.6115 30 16.2489 29.8892 15.942 29.6976C15.3763 29.3443 15 28.7161 15 28V19ZM10.5149 22H12.5V27.9189C12.2154 27.4369 11.9416 26.8746 11.6858 26.2352C11.2046 25.0322 10.8045 23.5993 10.5149 22ZM27.2594 15.8974C27.8138 15.576 28.4074 15.4287 28.9886 15.4288C28.9409 14.2419 28.7455 13.093 28.4202 12H21.7902C21.8771 12.811 21.9381 13.6463 21.9711 14.5H24C25.2825 14.5 26.4397 15.0365 27.2594 15.8974ZM8.20981 20C8.07254 18.7196 8 17.3786 8 16C8 14.6214 8.07253 13.2804 8.2098 12H1.57976C1.20255 13.2674 1 14.6101 1 16C1 17.39 1.20255 18.7326 1.57976 20H8.20981ZM2.34726 22H8.48459C8.79887 23.8596 9.25643 25.5469 9.82888 26.978C10.1976 27.8997 10.6221 28.7358 11.1012 29.4499C7.23033 28.3298 4.04983 25.584 2.34726 22ZM18.3142 5.76479C18.7954 6.96781 19.1955 8.40075 19.4851 10H10.5149C10.8045 8.40075 11.2046 6.96781 11.6858 5.76479C12.2008 4.47728 12.7891 3.50246 13.3911 2.86588C13.989 2.2336 14.5314 2.0016 14.9952 2.00001L15 2L15.0027 2C15.467 2.0009 16.0101 2.23265 16.6089 2.86588C17.2109 3.50246 17.7992 4.47728 18.3142 5.76479ZM21.5154 10H27.6527C25.9502 6.41602 22.7697 3.67018 18.8988 2.55008C19.3779 3.26419 19.8024 4.10032 20.1711 5.02201C20.7436 6.45315 21.2011 8.14037 21.5154 10ZM2.34726 10H8.48459C8.79887 8.14037 9.25642 6.45315 9.82888 5.02201C10.1976 4.10032 10.6221 3.26419 11.1012 2.55008C7.23032 3.67018 4.04983 6.41602 2.34726 10Z" fill="#212121"/>
</svg>

<svg viewBox="0 0 32 32" fill="none" xmlns="http://www.w3.org/2000/svg" height="1em" width="1em">
  <path d="M10 16c0-1.393.078-2.734.222-4h9.556c.092.805.157 1.64.192 2.5H17a4.5 4.5 0 0 0-4.5 4.5v1h-2.278A35.485 35.485 0 0 1 10 16Zm5 3a2 2 0 0 1 2-2h7a1.998 1.998 0 0 1 2 2v.836l2.422-1.717a.98.98 0 0 1 .444-.177 1.002 1.002 0 0 1 1.134.993v9.13a1 1 0 0 1-1.578.816L26 27.164V28a2 2 0 0 1-2 2h-7a1.999 1.999 0 0 1-2-2v-9Zm-4.485 3H12.5v5.919a12.329 12.329 0 0 1-.814-1.684c-.481-1.203-.881-2.636-1.171-4.235Zm16.744-6.103a3.43 3.43 0 0 1 1.73-.468A13.975 13.975 0 0 0 28.42 12h-6.63c.087.811.148 1.646.181 2.5H24c1.282 0 2.44.537 3.26 1.397ZM8.21 20A37.618 37.618 0 0 1 8 16c0-1.379.073-2.72.21-4H1.58A14.002 14.002 0 0 0 1 16c0 1.39.203 2.733.58 4h6.63Zm-5.862 2h6.138c.314 1.86.771 3.547 1.344 4.978.369.922.793 1.758 1.272 2.472A14.036 14.036 0 0 1 2.347 22ZM18.314 5.765c.481 1.203.881 2.636 1.171 4.235h-8.97c.29-1.6.69-3.032 1.17-4.235.516-1.288 1.104-2.263 1.706-2.9.598-.631 1.14-.863 1.604-.865h.008c.464 0 1.007.233 1.606.866.602.636 1.19 1.611 1.705 2.899ZM21.515 10h6.138a14.036 14.036 0 0 0-8.754-7.45c.479.714.903 1.55 1.272 2.472.573 1.431 1.03 3.118 1.344 4.978ZM2.347 10h6.138c.314-1.86.771-3.547 1.344-4.978.369-.922.793-1.758 1.272-2.472A14.036 14.036 0 0 0 2.347 10Z" fill="#212121"/>
</svg>
